img/mobile__arrows.svg

<svg width="24" height="557" viewBox="0 0 24 557" fill="none" xmlns="http://www.w3.org/2000/svg">
<path d="M13.5 2C13.5 1.17157 12.8284 0.5 12 0.5C11.1716 0.5 10.5 1.17157 10.5 2H13.5ZM10.9393 52.0607C11.5251 52.6464 12.4749 52.6464 13.0607 52.0607L22.6066 42.5147C23.1924 41.9289 23.1924 40.9792 22.6066 40.3934C22.0208 39.8076 21.0711 39.8076 20.4853 40.3934L12 48.8787L3.51472 40.3934C2.92893 39.8076 1.97919 39.8076 1.3934 40.3934C0.807611 40.9792 0.807611 41.9289 1.3934 42.5147L10.9393 52.0607ZM10.5 2L10.5 51H13.5L13.5 2H10.5Z" fill="#4CA7DE"/>
<path d="M13.5 255C13.5 254.172 12.8284 253.5 12 253.5C11.1716 253.5 10.5 254.172 10.5 255H13.5ZM10.9393 305.061C11.5251 305.646 12.4749 305.646 13.0607 305.061L22.6066 295.515C23.1924 294.929 23.1924 293.979 22.6066 293.393C22.0208 292.808 21.0711 292.808 20.4853 293.393L12 301.879L3.51472 293.393C2.92893 292.808 1.97919 292.808 1.3934 293.393C0.807611 293.979 0.807611 294.929 1.3934 295.515L10.9393 305.061ZM10.5 255L10.5 304H13.5L13.5 255H10.5Z" fill="#4CA7DE"/>
<path d="M13.5 506C13.5 505.172 12.8284 504.5 12 504.5C11.1716 504.5 10.5 505.172 10.5 506H13.5ZM10.9393 556.061C11.5251 556.646 12.4749 556.646 13.0607 556.061L22.6066 546.515C23.1924 545.929 23.1924 544.979 22.6066 544.393C22.0208 543.808 21.0711 543.808 20.4853 544.393L12 552.879L3.51472 544.393C2.92893 543.808 1.97919 543.808 1.3934 544.393C0.807611 544.979 0.807611 545.929 1.3934 546.515L10.9393 556.061ZM10.5 506L10.5 555H13.5L13.5 506H10.5Z" fill="#4CA7DE"/>
</svg>

<svg width="24" height="557" fill="none" xmlns="http://www.w3.org/2000/svg"><path d="M13.5 2a1.5 1.5 0 0 0-3 0h3Zm-2.56 50.06a1.5 1.5 0 0 0 2.12 0l9.547-9.545a1.5 1.5 0 1 0-2.122-2.122L12 48.88l-8.485-8.486a1.5 1.5 0 1 0-2.122 2.122l9.546 9.546ZM10.5 2v49h3V2h-3ZM13.5 255a1.5 1.5 0 0 0-3 0h3Zm-2.56 50.061a1.502 1.502 0 0 0 2.12 0l9.547-9.546a1.5 1.5 0 0 0-2.122-2.122L12 301.879l-8.485-8.486a1.501 1.501 0 0 0-2.122 2.122l9.546 9.546ZM10.5 255v49h3v-49h-3ZM13.5 506a1.5 1.5 0 0 0-3 0h3Zm-2.56 50.061a1.502 1.502 0 0 0 2.12 0l9.547-9.546a1.5 1.5 0 0 0-2.122-2.122L12 552.879l-8.485-8.486a1.501 1.501 0 0 0-2.122 2.122l9.546 9.546ZM10.5 506v49h3v-49h-3Z" fill="#4CA7DE"/></svg>
